X: 91
T: Preludium As-dur
C: Maria Szymanowska
%%abc-version 2.0
%%abcx-abcm2ps-target-version 5.9.1 (29 Sep 2008)
%%abc-creator hum2abc beta
%%abcx-conversion-date 2021/10/04 07:38:39
%%abc-edited-by Anna Matuszewska
%%abcx-initial-encoding-date 2020-21-07
%%humdrum-veritas 2778898597
%%humdrum-veritas-data 911204381
%%linebreak <none>
%%barnumbers 0
L: 1/16
M: 3/8
N: Derived from pl-kozmzk--mzk-m-31--019_szymanowska-maria--preludium-as-dur.krn
%%staves {1 2}
V: 1 clef=treble
V: 2 clef=bass
K: Ab
[V:1] [C4E4A4]z2 | 
[V:2] A,,2{/B,,A,,G,,}!wedge!A,,!wedge!C,!wedge!E,!wedge!G, | 
[V:1] z6 | 
[V:2] A,2{/B,A,G,}!wedge!A,!wedge!C!wedge!E!wedge!G[K:clef=treble] | 
[V:1] [c4e4a4]z2 | 
[V:2] A2{/BAG}Aceg | 
[V:1] z6 | 
[V:2] !wedge!a!wedge!g!wedge!f!wedge!e!wedge!d!wedge!c | 
[V:1] [g6-b6-d'6e'6-] | 
[V:2] e2{/fe=d}e_dBG | 
[V:1] [g4b4d'4e'4]z2 | 
[V:2] E2{/FE=D}E_DB,G,[K:clef=bass] | 
[V:1] [G6B6-d6-e6-] | 
[V:2] E,2{/F,E,_D,}E,_D,B,,G,, | 
[V:1] [G4B4d4e4]z2 | 
[V:2] E,,F,,E,,D,,C,,B,,, | 
[V:1] A,2{/B,A,G,}A,CEG | 
[V:2] A,,,2!accent![E,,4A,,4C,4] | 
[V:1] A2{/BAG}Aceg | 
[V:2] !wedge!A,,2!accent![E,4A,4C4] | 
[V:1] a2{/bag}ac'e'g' | 
[V:2] A,2[K:clef=treble]!accent![E4A4c4][K:clef=bass] | 
[V:1] !wedge!a'!wedge!g'!wedge!f'!wedge!e'!wedge!d'!wedge!c' | 
[V:2] A,2[K:clef=treble]!accent![E4A4c4][K:clef=bass] | 
[V:1] e'2{/f'e'=d'}e'_d'bg | 
[V:2] E,2[K:clef=treble]!accent![E4B4d4][K:clef=bass] | 
[V:1] e2{/fe=d}e_dBG | 
[V:2] E,,2[E,4B,4D4] | 
[V:1] E2{/FE=D}E_DB,G, | 
[V:2] E,,2[E,4B,4D4] | 
[V:1] E, zz4 | 
[V:2] z F,E,D,C,B,, | 
[V:1] [C4E4A4]z2 | 
[V:2] A,,2{/B,,A,,G,,}A,,C,E,G, | 
[V:1] z6 | 
[V:2] A,2{/B,A,G,}A,CEG | 
[V:1] z2 {/BAG} Aceg | 
[V:2] A2z4 | 
[V:1] a [c'e'][b=d'][c'e'][_d'f'][c'e'] | 
[V:2] A,,2 E,2[A,2C2] | 
[V:1] [g2e'2][g4d'4]- | 
[V:2] E,,2{/F,,E,,=D,,}E,,G,,B,,=D, | 
[V:1] [g4d'4]z2 | 
[V:2] E,2{/F,E,=D,}E,G,B,=D | 
[V:1] z2 {/FE=D} EGB=d | 
[V:2] E2z4 | 
[V:1] e [b_d'][a=c'][bd'][c'e'][bd'] | 
[V:2] E,,2 [E,,3E,3]!accent![=E,,=E,] | 
[V:1] [_a2d'2][a4c'4] | 
[V:2] [F,,2F,2] {/G,F,=E,} F,G,A,F, | 
[V:1] c'4[b2d'2] & =e2 {/fe=d} efge | 
[V:2] C,4C,2 | 
[V:1] b2a4 & c6 | 
[V:2] F,2 {/G,F,=E,} F,G,A,F, | 
[V:1] [f2g2] {/agf} gabg & d4[d2f2] | 
[V:2] B,,4B,,2 | 
[V:1] [f2c'2] {/gf=e} fgaf & c2x2 c2 | 
[V:2] A,2- A,B,CA, & C,4C,2 | 
[V:1] [c2=e2c'2] {/=DC=B,} CD=EC | 
[V:2] [C,4G,4][C,2G,2B,2] | 
[V:1] F4!accent![B,2C2G2] | 
[V:2] [F,2A,2] {/=D,,C,,=B,,,} C,,_D,,=E,,C,, | 
[V:1] [A,4C4F4]!accent![D2_E2B2] :|]  
[V:2] F,,2 {/F,,E,,=D,,} _E,,F,,G,,E,, :|]  
[V:1] [A,4C4F4]!accent![A,2E2_G2] | 
[V:2] F,,2 {/B,,A,,G,,} A,,B,,C,A,, | 
[V:1] [A,4D4F4]z2 | 
[V:2] D,2{/E,D,C,}D,F,A,C[K:clef=treble] | 
[V:1] z6 | 
[V:2] D2{/EDC}DFAc | 
[V:1] z2 {/edc} dfac' | 
[V:2] d2z4 | 
[V:1] d' [f'a'][=e'g'][f'a'][_g'b'][f'a'] | 
[V:2] [K:clef=bass]D,2 A,2[D2F2] | 
[V:1] [c'2a'2][c'4_g'4] | 
[V:2] A,,2{/B,,A,,G,,}A,,C,E,=G, | 
[V:1] z6 | 
[V:2] A,2{/B,A,G,}A,CE=G | 
[V:1] z2 {/BAG} Acef | 
[V:2] A2z4 | 
[V:1] _g [e'_g'][=d'f'][e'g'][f'a'][e'g'] | 
[V:2] A,,2 A,2[C2_G2] | 
[V:1] [a2d'2_g'2][a4d'4f'4] | 
[V:2] [D,2D2] {/EDC} DEFD | 
[V:1] [f2=a2f'2] {/gf=e} FG[=E=A]F | 
[V:2] [F,,4F,4]F,2 | 
[V:1] [D2c2][D4B4] & F6- | 
[V:2] [B,,2B,2] {/CB,=A,} B,CDB, | 
[V:1] [D2F2B2] {/FE=D} EFGE | 
[V:2] [G,,4G,4]E,2 | 
[V:1] [C2B2][C4A4] & E6- | 
[V:2] [A,,2A,2] {/B,A,G,} A,B,CA, | 
[V:1] [C2E2A2] {/EDC} DEFD | 
[V:2] [F,,4F,4]D,2 | 
[V:1] [B,2A2][B,4G4] & D6- | 
[V:2] [G,,2G,2] {/A,G,F,} G,A,B,G, | 
[V:1] [B,2D2G2] {/=DC=B,} C=D=EC | 
[V:2] [=E,,4=E,4]C,2 | 
[V:1] [A,2G2][A,4F4] | 
[V:2] [F,,2F,2] {/G,F,=E,} F,G,A,F, | 
[V:1] [A,2G2][A,4F4] | 
[V:2] [_E,,2_E,2] {/F,E,=D,} E,F,G,E, | 
[V:1] [A,2G2][A,4F4] | 
[V:2] [=D,,2=D,2] {/G,F,=E,} F,G,A,F, | 
[V:1] [F2=B2] {/GF=E} FGAF | 
[V:2] [_D,,2_D,2] D,2D2 | 
[V:1] [=E2c2] E2G2 | 
[V:2] [C,2C2] {/=DC=B,} CD=EC | 
[V:1] [F2=B2] {/GF=E} FGAF | 
[V:2] C,2=D2=B,2 & C,6 | 
[V:1] [=E2c2] E2G2 | 
[V:2] [C,2C2] {/=DC=B,} C=D=EC | 
[V:1] [F2=B2] {/GF=E} FGAF | 
[V:2] C,2=D2=B,2 & C,6 | 
[V:1] [=E6c6] | 
[V:2] [C,C] {/=D} C=B,C=DC | 
[V:1] c4!accent!B2 & F{/G}F=EFGF | 
[V:2] _D4_D,2 | 
[V:1] [C6E6A6] | 
[V:2] [E,,E,] {/F,} E,=D,E,F,E, | 
[V:1] [B,DG] {/F} E=DE[G,DF]E | 
[V:2] E,2E,,2E,,2 | 
[V:1] [A,4C4E4]z2 | 
[V:2] A,,2{/B,,A,,G,,}A,,C,E,G, | 
[V:1] z6 | 
[V:2] A,2{/B,A,G,}A,CEG | 
[V:1] z2 {/BAG} Aceg | 
[V:2] A2z4 | 
[V:1] !wedge!a [c'e'][=b=d'][c'e'][_d'f'][c'e'] | 
[V:2] A,,2 E,2[A,2C2] | 
[V:1] [g2e'2][g4_d'4]- | 
[V:2] E,,2{/F,,E,,=D,,}E,,G,,B,,=D, | 
[V:1] [g4d'4]z2 | 
[V:2] E,2{/F,E,=D,}E,G,B,=D | 
[V:1] z2 {/FE=D} EGB=d | 
[V:2] E2z4 | 
[V:1] !wedge!e [b_d'][=a=c'][bd'][c'e'][bd'] | 
[V:2] E,,2 E,2[B,2D2] | 
[V:1] [e2a2d'2][e4a4c'4] | 
[V:2] [A,,2A,2] {/B,A,G,} A,B,CA, | 
[V:1] [d2f2b2] {/edc} defd | 
[V:2] [D,4D4]D2 | 
[V:1] [c2b2][c4a4] | 
[V:2] [E,E] {/F} E=DEFE | 
[V:1] [Bdg] {/f} e=defe | 
[V:2] E4E,2 | 
[V:1] [A6c6e6a6] | 
[V:2] [A,,A,] {/B,} A,G,A,B,A, | 
[V:1] [_G6c6e6_g6] | 
[V:2] !accent![A,,A,] {/B,} A,=G,A,B,A, | 
[V:1] [F6A6d6f6] | 
[V:2] [A,,A,] {/B,} A,G,A,B,A, | 
[V:1] !accent![B6d6g6] | 
[V:2] A,, {/_F,} E,=D,E,_F,E, | 
[V:1] [A6c6a6] | 
[V:2] A,, {/B,,} A,,G,,A,,B,,A,, | 
[V:1] [_G,6C6E6_G6] | 
[V:2] [A,,,A,,] {/B,,} A,,=G,,A,,B,,A,, | 
[V:1] [F,6A,6D6F6] | 
[V:2] [A,,,A,,] {/B,,} A,,=G,,A,,B,,A,, | 
[V:1] [B,6D6G6] | 
[V:2] A,,, {/_F,,} E,,=D,,E,,_F,,E,, | 
[V:1] [A,6C6A6] | 
[V:2] A,,, {/=F,,} E,,=D,,E,,F,,E,, | 
[V:1] [B,6_D6G6] | 
[V:2] A,,, {/_F,,} E,,=D,,E,,F,,E,, | 
[V:1] [A,6C6A6] | 
[V:2] A,,, {/=F,,} E,,=D,,E,,F,,E,, | 
[V:1] [B,6_D6G6] | 
[V:2] A,,, {/_F,,} E,,=D,,E,,F,,E,, | 
[V:1] [C4E4A4]z2 | 
[V:2] {/B,,,} [A,,,2A,,2]{/B,,A,,G,,}A,,C,E,G, | 
[V:1] z2 {/B,A,G,} A,CEG | 
[V:2] A,2z4 | 
[V:1] A2z4 | 
[V:2] z2 {/BAG} Aceg | 
[V:1] z2 {/bag} ac'e'g' | 
[V:2] a2z4 | 
[V:1] a'2 z2 [d2g2b2e'2] | 
[V:2] z4[E,2E2] | 
[V:1] [c2e2a2c'2] z2 [D2G2B2e2] | 
[V:2] A,2 z2 [E,,2E,2] | 
[V:1] !fermata![C6E6A6c6] |]  
[V:2] !fermata!A,,6 |]  


